X: 21101
T: Kandel's Hora
R: waltz
M: 3/4
K: Dminor
|:A3^c ed|^c3B AG|A6|B2A2G2|^F3G AB|G6-|G6|
A3^c ed|^c3B AG|A3 e3|e3d ^cB|^c3B AG|A6-|A4A2:|
|:d2d2d2|d4^c2|e3d ^cB|A4A2|d2^c2B2|A3B ^cd|^c6-|c4A2|
d2d2d2|d3e f^f|g3f ed|^c4c2|d2G2AB|^c2d2cB|A6-|A4A2:|
d6-|d4ef|d6-|d4ef|d4ef|d4ef|d6-|d4A2|:
d2e2f2|f4f2|f3A de|f3e/f/ ed|f3e/f/ ed|g3f ed|
e4d2|^c2d2e2|e3a ea|e6-|e4A2|f3e ed|^c3d ef|d6-|d4A2:|

